X: 201
T: Hora Mare Vranceneasca
O: Romania-Moldavien
Z: Transcribed by Birgitt Karlson
Z: http://www-linux.gsi.de/~karlson/index_e.htm
M: 2/4
L: 1/8
K: Am
|:"G7" f2 "C"e3/2d/|cG ce|"G7" f2 e2|"C"^f g3|
"G7" f2 "C" e3/2d/|"Dm"B/c/d- d/B/c/d/|\
"E7" e/d/d/c/ c/B/B/^G/|[1"Am" A4:|[2"Am" A2 "G"G2||
|:"Am"c/B/A AA|^de c/B/A|BA Bc|"dm"|d4|
"Am"c/B/A AA|^de c/B/A|BA "E7"Bc|[1A4:|[2A2 G2||
|:"G7" f2 e3/2d/|"C"cG ce|"G7"f2 e2|"C"^f g3|
"G7" f2 e3/2d/|"Dm"B/c/d- d/B/c/d/|"E7"e/d/d/c/ c/B/B/^G/|"Am"A4:|



